SVG/venus.svg

<?xml version="1.0" encoding="utf-8"?>
<!-- Generated by IcoMoon.io -->
<!DOCTYPE svg PUBLIC "-//W3C//DTD SVG 1.1//EN" "http://www.w3.org/Graphics/SVG/1.1/DTD/svg11.dtd">
<svg version="1.1" xmlns="http://www.w3.org/2000/svg" xmlns:xlink="http://www.w3.org/1999/xlink" width="9" height="14" viewBox="0 0 9 14">
<path fill="#444444" d="M9 4.5q0 1.727-1.152 3.004t-2.848 1.465v2.031h1.75q0.109 0 0.18 0.070t0.070 0.18v0.5q0 0.109-0.070 0.18t-0.18 0.070h-1.75v1.75q0 0.109-0.070 0.18t-0.18 0.070h-0.5q-0.109 0-0.18-0.070t-0.070-0.18v-1.75h-1.75q-0.109 0-0.18-0.070t-0.070-0.18v-0.5q0-0.109 0.070-0.18t0.18-0.070h1.75v-2.031q-1.172-0.125-2.121-0.805t-1.453-1.75-0.41-2.281q0.086-1.047 0.629-1.945t1.422-1.469 1.918-0.688q1.328-0.148 2.492 0.422t1.844 1.656 0.68 2.391zM1 4.5q0 1.445 1.027 2.473t2.473 1.027 2.473-1.027 1.027-2.473-1.027-2.473-2.473-1.027-2.473 1.027-1.027 2.473z"></path>
</svg>

<svg xmlns="http://www.w3.org/2000/svg" viewBox="0 0 9 14"><path d="M9 4.5q0 1.727-1.152 3.004T5 8.97V11h1.75q.11 0 .18.07t.07.18v.5q0 .11-.07.18t-.18.07H5v1.75q0 .11-.07.18t-.18.07h-.5q-.11 0-.18-.07T4 13.75V12H2.25q-.11 0-.18-.07T2 11.75v-.5q0-.11.07-.18t.18-.07H4V8.97q-1.172-.126-2.12-.806T.425 6.414t-.41-2.28Q.1 3.086.645 2.188t1.42-1.47T3.985.03q1.327-.146 2.49.424T8.322 2.11 9 4.5zm-8 0q0 1.445 1.027 2.473T4.5 8t2.473-1.027T8 4.5 6.973 2.027 4.5 1 2.027 2.027 1 4.5z" /></svg>
